static/assets/svg/human/humanClothes/pants1_stickers/pants1_sticker13.svg

<svg class="bottomOverlay" width="86" height="380" viewBox="202.715 584.407 86.593 380.048" xmlns="http://www.w3.org/2000/svg" xmlns:xlink="http://www.w3.org/1999/xlink" xmlns:bx="https://boxy-svg.com"><defs><pattern id="a" width="20" height="20" patternUnits="userSpaceOnUse" viewBox="0 0 100 100"><path transform="rotate(123.792 218.113 107.36)" d="M235.314 301a25.686 25.686 0 1 0 51.372 0 25.686 25.686 0 1 0-51.372 0zm10.275 0a15.411 15.411 0 0 1 30.822 0 15.411 15.411 0 0 1-30.822 0z" bx:shape="ring 261 301 15.411 15.411 25.686 25.686 1@4a8ac479"/><path transform="rotate(98.797 466.468 180.108)" d="M419.043 595a13.957 13.957 0 1 0 27.914 0 13.957 13.957 0 1 0-27.914 0zm5.583 0a8.374 8.374 0 0 1 16.748 0 8.374 8.374 0 0 1-16.748 0z" bx:shape="ring 433 595 8.374 8.374 13.957 13.957 1@8677535d"/><path transform="rotate(103.736 357.25 -26.082)" d="M453.18 242a22.82 22.82 0 1 0 45.64 0 22.82 22.82 0 1 0-45.64 0zm9.128 0a13.692 13.692 0 0 1 27.384 0 13.692 13.692 0 0 1-27.384 0z" bx:shape="ring 476 242 13.692 13.692 22.82 22.82 1@97f6b1af"/><path transform="rotate(60.124 541.668 162.86)" d="M194.199 569a17.801 17.801 0 1 0 35.602 0 17.801 17.801 0 1 0-35.602 0zM201.32 569a10.68 10.68 0 0 1 21.36 0 10.68 10.68 0 0 1-21.36 0z" bx:shape="ring 212 569 10.68 10.68 17.801 17.801 1@1b4a579c" fill="#0ff"/><path transform="rotate(85.577 452.67 -6.81)" d="M448.19 380a29.81 29.81 0 1 0 59.62 0 29.81 29.81 0 1 0-59.62 0zm11.924 0a17.886 17.886 0 0 1 35.772 0 17.886 17.886 0 0 1-35.772 0z" bx:shape="ring 478 380 17.886 17.886 29.81 29.81 1@206afde5" fill="#4b9d9d"/><path transform="rotate(92.291 212.737 28.575)" d="M200.675 216a12.325 12.325 0 1 0 24.65 0 12.325 12.325 0 1 0-24.65 0zm4.93 0a7.395 7.395 0 0 1 14.79 0 7.395 7.395 0 0 1-14.79 0z" bx:shape="ring 213 216 7.395 7.395 12.325 12.325 1@f51776f9" fill="#1ad8e2"/></pattern><pattern id="b" patternTransform="matrix(1.45052 .39501 -.40519 1.48786 235.281 861.482)" xlink:href="#a"/></defs><path d="M210.836 792.118c0 15.899-9.514 40.757-9.514 57.803 0 9.418 1.465 17.872 1.465 26.745 0 16.413 2.194 32.922 2.194 49.176 0 5.993-2.194 11.282-2.194 15.529 0 5.853.731 10.812.731 14.667.974.863 5.123 4.915 5.123 5.176 2.234.863 1.464-.742 1.464-5.176 3.378-.863 8.349-5.177 14.635-5.177 2.407-1.974 7.139-.862 9.514-.862 0-19.489 5.855-40.503 5.855-61.255 0-9.027 2.195-15.744 2.195-22.431v-18.117-11.216c0 4.039.732 7.176.732 10.353v14.666c0 4.402-1.464 9.384-1.464 11.216v29.333c0 6.405 2.927 10.461 2.927 15.529 0 3.796.732 7.138.732 10.353 0 6.103.732 10.388.732 15.529 0 3.7 7.174 3.451 9.512 3.451 2.066 0 6.205.413 7.318 1.726h8.782c.731-4.811 7.317-14.119 7.317-19.843 4.235-10.846-.731-22.086-.731-31.059 0-10.642 2.195-18.132 2.195-27.607 0-3.612 2.219-25.02 2.927-25.02v-14.666c0-5.65-1.463-11.098-1.463-17.255 0-3.637-1.464-4.239-1.464-7.765-.732-1.652-2.195-5.385-2.195-8.627-.733-3.83-2.196-3.39-2.196-6.039-4.316 0-7.31-3.451-7.317-3.451h-9.514c-4.688 0-7.584-.863-10.977-.863-2.348 1.907-7.215.863-9.512.863h-5.855c-4.95 4.973-6.98.863-9.513.863-3.368-.863-4.078-2.589-7.318-2.589-2.708 0-4.39 2.962-4.39 5.177z" class="clothes" stroke="#000" fill="url(#b)"/></svg>

<svg class="bottomOverlay" width="86" height="380" viewBox="202.715 584.407 86.5933 380.048" preserveAspectRatio="xMidYMid meet" xmlns="http://www.w3.org/2000/svg" xmlns:xlink="http://www.w3.org/1999/xlink" xmlns:bx="https://boxy-svg.com">
  <defs id="svgEditorDefs">
    <path id="svgEditorClosePathDefs" fill="moccasin" style="stroke-width: 0px; stroke: none; fill-opacity: 1;" class="clothes"/>
    <pattern id="pattern-0" x="0" y="0" width="20" height="20" patternUnits="userSpaceOnUse" viewBox="0 0 100 100">
      <path transform="matrix(-0.556175, 0.831066, -0.831066, -0.556175, 428.645826, -14.195764)" d="M 261 301 m -25.686 0 a 25.686 25.686 0 1 0 51.372 0 a 25.686 25.686 0 1 0 -51.372 0 Z M 261 301 m -15.411 0 a 15.411 15.411 0 0 1 30.822 0 a 15.411 15.411 0 0 1 -30.822 0 Z" bx:shape="ring 261 301 15.411 15.411 25.686 25.686 1@4a8ac479"/>
      <path transform="matrix(-0.152941, 0.988236, -0.988233, -0.152941, 715.7986, -253.3267)" d="M 433 595 m -13.957 0 a 13.957 13.957 0 1 0 27.914 0 a 13.957 13.957 0 1 0 -27.914 0 Z M 433 595 m -8.374 0 a 8.374 8.374 0 0 1 16.748 0 a 8.374 8.374 0 0 1 -16.748 0 Z" bx:shape="ring 433 595 8.374 8.374 13.957 13.957 1@8677535d"/>
      <path transform="matrix(-0.237453, 0.971399, -0.971399, -0.237453, 416.7435, -379.306519)" d="M 476 242 m -22.82 0 a 22.82 22.82 0 1 0 45.64 0 a 22.82 22.82 0 1 0 -45.64 0 Z M 476 242 m -13.692 0 a 13.692 13.692 0 0 1 27.384 0 a 13.692 13.692 0 0 1 -27.384 0 Z" bx:shape="ring 476 242 13.692 13.692 22.82 22.82 1@97f6b1af"/>
      <path transform="matrix(0.498124, 0.867106, -0.867104, 0.498124, 413.067438, -387.948357)" d="M 212 569 m -17.801 0 a 17.801 17.801 0 1 0 35.602 0 a 17.801 17.801 0 1 0 -35.602 0 Z M 212 569 m -10.68 0 a 10.68 10.68 0 0 1 21.36 0 a 10.68 10.68 0 0 1 -21.36 0 Z" style="fill: rgb(0, 255, 255);" bx:shape="ring 212 569 10.68 10.68 17.801 17.801 1@1b4a579c"/>
      <path transform="matrix(0.077118, 0.997022, -0.997022, 0.077118, 410.971525, -457.605282)" d="M 478 380 m -29.81 0 a 29.81 29.81 0 1 0 59.62 0 a 29.81 29.81 0 1 0 -59.62 0 Z M 478 380 m -17.886 0 a 17.886 17.886 0 0 1 35.772 0 a 17.886 17.886 0 0 1 -35.772 0 Z" style="fill: rgb(75, 157, 157);" bx:shape="ring 478 380 17.886 17.886 29.81 29.81 1@206afde5"/>
      <path transform="matrix(-0.039968, 0.999201, -0.999201, -0.039968, 249.792208, -182.850249)" d="M 213 216 m -12.325 0 a 12.325 12.325 0 1 0 24.65 0 a 12.325 12.325 0 1 0 -24.65 0 Z M 213 216 m -7.395 0 a 7.395 7.395 0 0 1 14.79 0 a 7.395 7.395 0 0 1 -14.79 0 Z" style="fill: rgb(26, 216, 226);" bx:shape="ring 213 216 7.395 7.395 12.325 12.325 1@f51776f9"/>
    </pattern>
    <pattern id="pattern-0-0" patternTransform="matrix(1.450518, 0.395012, -0.405185, 1.487861, 235.281448, 861.481995)" xlink:href="#pattern-0"/>
  </defs>
  <path d="M 210.836 792.118 C 210.836 808.017 201.322 832.875 201.322 849.921 C 201.322 859.339 202.787 867.793 202.787 876.666 C 202.787 893.079 204.981 909.588 204.981 925.842 C 204.981 931.835 202.787 937.124 202.787 941.371 C 202.787 947.224 203.518 952.183 203.518 956.038 C 204.492 956.901 208.641 960.953 208.641 961.214 C 210.875 962.077 210.105 960.472 210.105 956.038 C 213.483 955.175 218.454 950.861 224.74 950.861 C 227.147 948.887 231.879 949.999 234.254 949.999 C 234.254 930.51 240.109 909.496 240.109 888.744 C 240.109 879.717 242.304 873 242.304 866.313 C 242.304 859.699 242.304 853.947 242.304 848.196 C 242.304 843.882 242.304 840.431 242.304 836.98 C 242.304 841.019 243.036 844.156 243.036 847.333 C 243.036 852.797 243.036 857.398 243.036 861.999 C 243.036 866.401 241.572 871.383 241.572 873.215 C 241.572 878.104 241.572 882.13 241.572 886.156 C 241.572 892.195 241.572 897.372 241.572 902.548 C 241.572 908.953 244.499 913.009 244.499 918.077 C 244.499 921.873 245.231 925.215 245.231 928.43 C 245.231 934.533 245.963 938.818 245.963 943.959 C 245.963 947.659 253.137 947.41 255.475 947.41 C 257.541 947.41 261.68 947.823 262.793 949.136 C 266.208 949.136 268.892 949.136 271.575 949.136 C 272.306 944.325 278.892 935.017 278.892 929.293 C 283.127 918.447 278.161 907.207 278.161 898.234 C 278.161 887.592 280.356 880.102 280.356 870.627 C 280.356 867.015 282.575 845.607 283.283 845.607 C 283.283 839.464 283.283 836.139 283.283 830.941 C 283.283 825.291 281.82 819.843 281.82 813.686 C 281.82 810.049 280.356 809.447 280.356 805.921 C 279.624 804.269 278.161 800.536 278.161 797.294 C 277.428 793.464 275.965 793.904 275.965 791.255 C 271.649 791.255 268.655 787.804 268.648 787.804 C 264.989 787.804 262.062 787.804 259.134 787.804 C 254.446 787.804 251.55 786.941 248.157 786.941 C 245.809 788.848 240.942 787.804 238.645 787.804 C 236.205 787.804 234.497 787.804 232.79 787.804 C 227.84 792.777 225.81 788.667 223.277 788.667 C 219.909 787.804 219.199 786.078 215.959 786.078 C 213.251 786.078 211.569 789.04 211.569 791.255 Z" style="stroke: black; fill: url(#pattern-0-0);" class="clothes"/>
  <g transform="matrix(0.136585, 0, 0, 0.136585, 353.337769, 791.945129)">
    <g id="layer1" transform="matrix(1, 0, 0, 1, 0, -3.452308)">
      <g id="g4615"/>
    </g>
  </g>
</svg>
